svg/computer-alt.svg

<svg xmlns="http://www.w3.org/2000/svg" viewBox="0 0 64 50" enable-background="new 0 0 64 50"><style type="text/css">.st0{fill:#333333;}</style><title>computer-alt</title><desc>Created with Sketch.</desc><path class="st0" d="M61 0h-58c-1.7 0-3 1.3-3 3v36c0 1.7 1.3 3 3 3h58c1.7 0 3-1.3 3-3v-36c0-1.7-1.3-3-3-3zm-1 38h-56v-34h56v34zM44 46h-24c-1.1 0-2 .9-2 2s.9 2 2 2h24c1.1 0 2-.9 2-2s-.9-2-2-2z"/></svg>

<?xml version="1.0" encoding="utf-8"?>
<!-- Generator: Adobe Illustrator 21.0.0, SVG Export Plug-In . SVG Version: 6.00 Build 0)  -->
<svg version="1.1" id="Layer_1" xmlns="http://www.w3.org/2000/svg" xmlns:xlink="http://www.w3.org/1999/xlink" x="0px" y="0px"
	 viewBox="0 0 64 50" style="enable-background:new 0 0 64 50;" xml:space="preserve">
<style type="text/css">
	.st0{fill:#333333;}
</style>
<title>computer-alt</title>
<desc>Created with Sketch.</desc>
<g>
	<path class="st0" d="M61,0H3C1.3,0,0,1.3,0,3v36c0,1.7,1.3,3,3,3h58c1.7,0,3-1.3,3-3V3C64,1.3,62.7,0,61,0z M60,38H4V4h56V38z"/>
	<path class="st0" d="M44,46H20c-1.1,0-2,0.9-2,2s0.9,2,2,2h24c1.1,0,2-0.9,2-2S45.1,46,44,46z"/>
</g>
</svg>
